X:1
T:Title
%%score { ( 1 3 4 ) | ( 2 5 6 ) }
L:1/8
Q:1/4=94
M:4/4
K:Eb
V:1 bass nm="Grand Piano"
V:3 bass 
V:4 bass 
V:2 bass 
V:5 bass 
V:6 bass 
V:1
 E,6 E,F, | G,2 B,2 A,2 G,2 | C6 z2 | E8- |[M:3/4] E6 |[M:1/4][K:treble] G2 |[M:4/4] z4 z2 G2 | %7
w: Arthur~J.~Jamouneau * *|||||||
 B6 B2 | A4 A2 A2 | e6 z2 | e2 dc B3 G, | A4 z4 | [=A,EG-]2 G2 F2 E2 | D4 E2 [DAB]2 | B4 E2 E2 | %15
w: ||||||||
 c-[Ec-][Ec-][Ec-] [Ac-][Ac]c-[=EAc] | .[FA]2 z2 d2 e2 | d6 d2 | e2 B2 =A2 c2 | %19
w: ||||
 z2 .A2 E2[K:bass] z2 | A-[EA-][EA][EA] G-[DG][A,F]-[A,DF] | B2- [DAB-]2 [EGB]2 [CGc]2 | %22
w: |||
 A4 G2 z2[Q:1/4=93][Q:1/4=91][Q:1/4=90][Q:1/4=88][Q:1/4=87][Q:1/4=86][Q:1/4=84][Q:1/4=83][Q:1/4=82][Q:1/4=80][Q:1/4=79][Q:1/4=77][Q:1/4=76][Q:1/4=75][Q:1/4=73][Q:1/4=72] | %23
w: |
[M:9/8][K:bass] [E,B,E]6- [E,B,E] z z |] %24
w: |
V:2
 E,,6 z2 | E,2 [D,F,]2 C,2 B,,2 | [A,,E,A,]2 [G,,=E,]2 F,2- [B,,F,]2 | [E,,E,]8 |[M:3/4] [E,,E,]6 | %5
[M:1/4][K:treble] E2 |[M:4/4] EEEE EE .E2 | [DF]DDD DD[DF]D | .E2 z E .E2 .E2 | [EG]EEE EEEE | %10
 E4- [B,E=G]4 | [F,CE]2 [B,,B,]2 E,2 z B, | z =A,A,[A,E] [A,C]A,[A,C]A, | z2 A,2 G,2 F,2 | %14
 [G,EG][G,E][G,E][G,B,] [G,B,]G,[G,B,]G, | %15
 A,[K:treble][A,C][A,C][A,C] [CE][CE][K:bass][A,,A,][G,,G,] | %16
 z[K:treble] FF[FA][K:bass] [F,,F,]F[F,,F,]F | z4[K:treble] [B,DF]2 [B,F]2 | %18
 [G,B,E]4 F2- [E,=A,F-]2 | [D,F]2[K:bass] z E .[E,C]2 z2 | z CCC z B, z B, | %21
 [G,,G,]2 [F,,F,]2 z _D [=E,,E,]2 | z/4 F,3/4-F, z C z2 F2 |[M:9/8] z2 G, F, G,2- G, z z |] %24
V:3
 x8 | x8 | z2 B,2 z2 D2 | z4 G,2 F,2 |[M:3/4] G,6 |[M:1/4][K:treble] x2 |[M:4/4] G3 G G2 z E | %7
 z FFF FF z F | z EEA z E z E | z GGG GGGG | x8 | z2 z B [B,EG]2 .[CEG]2 | %12
 F,-[F,-E][F,-E][F,-G] F,-[F,-C]F,-[F,C] | [B,F]2 B4 z2 | z GGE z B, z B, | .[CE]2 z2 z2 .[EA]2 | %16
 c-[Ac-][Ac]c z A z A | z B,DF B2 z A, | x8 | B2 D-[DG] z C[K:bass] C,2 | %20
 .[CE]2 z2 .[B,D]2 .[B,D]2 | [B,E]2 z2 z4 | [CF]2 z2 [A,B,D]4 |[M:9/8][K:bass] .A,3 z3 z3 |] %24
V:4
 x8 | x8 | z4 A,4- | A,4 z4 |[M:3/4] x6 |[M:1/4][K:treble] x2 |[M:4/4] x8 | x8 | x8 | x8 | x8 | %11
 z2 D2 z4 | x8 | x8 | x8 | x8 | x8 | x8 | x8 | x6[K:bass] x2 | x8 | x8 | x8 |[M:9/8][K:bass] x9 |] %24
V:5
 x8 | x8 | z4 F,,2 z2 | x8 |[M:3/4] x6 |[M:1/4][K:treble] x2 |[M:4/4] x8 | x8 | C4 =B,4 | B,6 z2 | %10
 [=A,C_G]4 z4 | z4 z2 C,2 | F,,8 | B,,8 | [E,,E,]8 | A,,6[K:treble][K:bass] z2 | %16
 [F,,F,]2[K:treble] z2[K:bass] z4 | B,,6[K:treble] z2 | z4 [F,C]2 z2 | B,6[K:bass] z2 | %20
 [F,,F,]4 B,,2 A,,2 | z4 [E,,E,]2 z2 | F,,2 z2 [B,,,B,,]4 |[M:9/8] E,,6- E,, z z |] %24
V:6
 x8 | x8 | x8 | x8 |[M:3/4] x6 |[M:1/4][K:treble] x2 |[M:4/4] x8 | x8 | x8 | x8 | x8 | x8 | x8 | %13
 x8 | x8 | x[K:treble] x5[K:bass] x2 | x[K:treble] x3[K:bass] x4 | x4[K:treble] x4 | x8 | %19
 z2[K:bass] B,,2 z4 | x8 | x8 | x8 |[M:9/8] x9 |] %24

